weblate_web/static/img/logo-freedombox.svg

<?xml version="1.0" encoding="UTF-8"?>
<svg width="246px" height="60px" viewBox="0 0 246 60" version="1.1" xmlns="http://www.w3.org/2000/svg" xmlns:xlink="http://www.w3.org/1999/xlink">
    <!-- Generator: sketchtool 54.1 (76490) - https://sketchapp.com -->
    <title>DAEDA7D6-0E2B-48AC-837B-2A4A9F88B217</title>
    <desc>Created with sketchtool.</desc>
    <g id="Weblate" stroke="none" stroke-width="1" fill="none" fill-rule="evenodd">
        <g id="Home" transform="translate(-1329.000000, -803.000000)" fill="#2A3744" fill-rule="nonzero">
            <g id="Users" transform="translate(345.000000, 730.000000)">
                <g id="LogoFreedomBox" transform="translate(984.000000, 73.000000)">
                    <path d="M91.7579688,21.5068471 C90.1557262,21.4998341 88.0686548,21.5802341 86.2627217,23.3136731 C85.5416205,24.0059328 85.2737798,25.2126341 85.2737643,26.2454913 L85.2737643,37.2958237 C85.2737643,37.61839 85.384854,37.8888731 85.605038,38.1091276 C85.8255494,38.3215588 86.0922209,38.4305562 86.3991285,38.4305562 L88.6157475,38.4305562 C88.9226395,38.4305562 89.1827635,38.3215588 89.3952152,38.1091276 C89.6155395,37.8888731 89.726489,37.6183744 89.726489,37.2958237 L89.726489,32.3380159 L97.3068122,32.3380159 C97.6137042,32.3380159 97.8687928,32.2338965 98.0814004,32.0214653 C98.3015844,31.8011952 98.4126741,31.5393146 98.4126741,31.2325042 L98.4126741,30.107512 C98.4126741,29.8085874 98.3015844,29.5534705 98.0814004,29.3331536 C97.8687928,29.1128835 97.6137042,29.0020004 97.3068122,29.0019848 L89.726489,29.0019848 L89.726489,26.7471068 C89.6732202,24.9283744 90.9465897,24.8477718 91.7043726,24.8477718 L99.216508,24.8477718 C99.5234,24.8477874 99.783524,24.7436055 99.9959757,24.5312055 C100.2163,24.3109354 100.327249,24.0442081 100.327249,23.7373822 L100.327249,22.6269926 C100.327249,22.3201822 100.216316,22.0583172 99.9959757,21.8380159 C99.783524,21.6177614 99.5234,21.5068783 99.216508,21.5068471 L92.4156525,21.5068471 C92.2087506,21.5068471 91.9868673,21.5084055 91.7579688,21.5068471 Z M153.184886,21.5068471 C152.980276,21.5068783 152.810133,21.5795484 152.668504,21.7211328 C152.534701,21.8548939 152.468742,22.0249822 152.468758,22.2373822 L152.468758,25.8607588 C151.193876,25.459538 150.053141,25.2617406 149.053707,25.261725 C147.117806,25.2617406 145.574584,25.8390497 144.425633,26.9954913 C143.28454,28.1440939 142.715668,29.7995952 142.715668,31.9630237 C142.715668,34.1185978 143.265427,35.7740991 144.367173,36.9305562 C145.476777,38.0870133 146.853597,38.6643224 148.498352,38.6643224 C150.143076,38.6643224 151.590734,38.2256367 152.834125,37.3445094 L152.834125,37.709777 C152.834125,37.9143224 152.900084,38.0892731 153.033872,38.2308887 C153.167644,38.3646185 153.337786,38.4305562 153.550269,38.4305562 L155.820469,38.4305562 C156.032936,38.4305562 156.203063,38.3646185 156.336866,38.2308887 C156.478511,38.0892731 156.551204,37.9143224 156.55122,37.709777 L156.55122,22.2373822 C156.551204,22.0249822 156.478511,21.8548939 156.336866,21.7211328 C156.203063,21.5795484 156.032936,21.5068783 155.820469,21.5068471 L153.184886,21.5068471 Z M199.485266,21.5068471 C199.178359,21.5068783 198.911531,21.6177614 198.691191,21.8380159 C198.470836,22.0583172 198.359917,22.3201822 198.359917,22.6269926 L198.359917,37.3201666 C198.359917,37.626977 198.470836,37.8888575 198.691191,38.1091276 C198.911531,38.3215432 199.178359,38.4305562 199.485266,38.4305562 L209.632973,38.4305562 C211.387867,38.4305562 212.867016,37.9869926 214.071075,37.1058809 C215.282961,36.2168991 215.89305,34.9218029 215.893066,33.2146393 C215.89305,31.5075068 215.133817,30.2457458 213.622881,29.4354185 C214.685249,28.5700627 215.215895,27.5626705 215.215911,26.4062133 C215.215895,25.2418861 214.907101,24.2850809 214.285429,23.5376991 C213.167922,22.1845822 211.430582,21.5068783 209.077603,21.5068471 L199.485266,21.5068471 Z M202.812627,24.7065302 L209.12632,24.7065302 C209.622092,24.7065458 210.020821,24.8556419 210.319872,25.1545822 C210.618907,25.453538 210.768066,25.8712627 210.768066,26.4062133 C210.768066,26.9333094 210.618907,27.3442861 210.319872,27.6432107 C210.020821,27.934312 209.622092,28.081538 209.12632,28.081538 L202.812627,28.081538 L202.812627,24.7065302 Z M110.582113,25.261725 C109.378054,25.2617406 108.401833,25.4022185 107.654246,25.6854341 C106.9145,25.9607796 106.142889,26.3889926 105.340193,26.9711484 L105.340193,26.2260107 C105.340193,26.0136107 105.274235,25.8435224 105.140462,25.709777 C105.006675,25.568177 104.831653,25.4955068 104.619186,25.4954913 L101.973859,25.4954913 C101.769249,25.4955068 101.599122,25.568177 101.457478,25.709777 C101.32369,25.8435224 101.257731,26.0136107 101.257731,26.2260107 L101.257731,37.709777 C101.257731,37.9221926 101.32369,38.0971432 101.457478,38.2308887 C101.59125,38.3646185 101.761392,38.4305562 101.973859,38.4305562 L104.619186,38.4305562 C104.823796,38.4305562 104.992052,38.3646185 105.12584,38.2308887 C105.267484,38.0971432 105.340193,37.9221926 105.340193,37.709777 L105.340193,30.1708159 C106.308136,29.0065042 107.322598,28.4224471 108.384981,28.4224315 L110.202123,28.4906289 L110.582113,28.4906289 C110.794581,28.4906289 110.969587,28.4246913 111.10339,28.2909458 C111.245019,28.1572159 111.312849,27.9871276 111.312864,27.774712 L111.312864,25.9776419 C111.312849,25.7730965 111.245019,25.6048939 111.10339,25.4711484 C110.969587,25.3295484 110.794581,25.2617406 110.582113,25.261725 Z M118.776267,25.261725 C116.612138,25.2617406 114.919757,25.8409198 113.699984,27.0052315 C112.480195,28.1617042 111.873099,29.823938 111.873099,31.9873666 C111.873099,34.1429562 112.478324,35.7917094 113.690241,36.9402965 C114.902141,38.0888835 116.594522,38.6643224 118.766524,38.6643224 C123.071165,38.6721146 125.221483,37.5471692 125.221483,35.2893302 C125.221483,35.0769146 125.153654,34.9068263 125.012009,34.7730809 C124.878205,34.6314809 124.703199,34.5588107 124.490748,34.5587952 L122.732066,34.5587952 C122.16544,34.5667432 121.69026,34.8075692 121.304658,35.2795744 C120.919055,35.7516107 120.202896,35.985751 119.156258,35.985751 C118.109604,35.985751 117.346614,35.7639692 116.866571,35.3234133 C116.394386,34.8828575 116.117082,34.1823068 116.038387,33.2146393 L124.929183,33.2146393 C125.14165,33.2146549 125.311792,33.1487172 125.445595,33.0149718 C125.587225,32.8733718 125.659933,32.6916731 125.659949,32.4792575 L125.659949,31.8071796 C125.659933,29.6988107 125.054708,28.081538 123.842807,26.9565302 C122.630891,25.8236835 120.940381,25.2617406 118.776267,25.261725 Z M134.131781,25.261725 C131.967651,25.2617406 130.275271,25.8409198 129.055497,27.0052315 C127.835708,28.1617042 127.228612,29.823938 127.228612,31.9873666 C127.228612,34.1429562 127.833838,35.7917094 129.045754,36.9402965 C130.257655,38.0888835 131.950035,38.6643224 134.122037,38.6643224 C138.426679,38.6721146 140.576996,37.5471692 140.576996,35.2893302 C140.576996,35.0769146 140.504287,34.9068263 140.362643,34.7730809 C140.228855,34.6314809 140.058713,34.5588107 139.846261,34.5587952 L138.087579,34.5587952 C137.520953,34.5667432 137.045774,34.8075692 136.660171,35.2795744 C136.274568,35.7516107 135.558409,35.985751 134.511771,35.985751 C133.465117,35.985751 132.697248,35.7639692 132.217205,35.3234133 C131.745035,34.8828575 131.472595,34.1823068 131.3939,33.2146393 L140.279832,33.2146393 C140.492299,33.2146549 140.667305,33.1487172 140.801109,33.0149718 C140.942738,32.8733718 141.015447,32.6916731 141.015462,32.4792575 L141.015462,31.8071796 C141.015447,29.6988107 140.410221,28.081538 139.198321,26.9565302 C137.986404,25.8236835 136.295895,25.2617406 134.131781,25.261725 Z M165.430757,25.261725 C163.132855,25.2617406 161.372645,25.8236835 160.144999,26.9565302 C158.917353,28.081538 158.303507,29.75239 158.303507,31.9630237 C158.303507,34.1658029 158.917353,35.8317926 160.144999,36.9646549 C161.372645,38.0975016 163.132855,38.6643224 165.430757,38.6643224 C167.736531,38.6643224 169.503475,38.0975016 170.731137,36.9646549 C171.958783,35.8317926 172.572629,34.1658029 172.572645,31.9630237 C172.572629,29.75239 171.958783,28.081538 170.731137,26.9565302 C169.503475,25.8236835 167.736531,25.2617406 165.430757,25.261725 Z M182.08365,25.261725 C181.312429,25.2617406 180.651752,25.4108367 180.100887,25.709777 C179.557879,26.0008783 179.00137,26.4204575 178.434775,26.9711484 L178.434775,26.2260107 C178.434775,26.0136107 178.368816,25.8435224 178.235044,25.709777 C178.101256,25.568177 177.926235,25.4955068 177.713767,25.4954913 L175.068441,25.4954913 C174.863831,25.4955068 174.693704,25.568177 174.552059,25.709777 C174.418271,25.8435224 174.35076,26.0136107 174.352313,26.2260107 L174.436238,37.709777 C174.437797,37.9221926 174.418271,38.0971432 174.552059,38.2308887 C174.685832,38.3646185 174.855974,38.4305562 175.068441,38.4305562 L177.713767,38.4305562 C177.918378,38.4305562 178.086633,38.3646185 178.220421,38.2308887 C178.362066,38.0971432 178.434775,37.9221926 178.434775,37.709777 L178.434775,29.8006861 C179.237471,28.6757094 180.075024,28.1156367 180.948558,28.1156211 C182.317849,28.1078289 183.004404,29.0473354 183.004404,30.9354185 L183.004404,37.709777 C183.004389,37.9143224 183.070347,38.0892731 183.204151,38.2308887 C183.34578,38.3646185 183.522672,38.4305562 183.735155,38.4305562 L186.365859,38.4305562 C186.570453,38.4305562 186.738709,38.3646185 186.872513,38.2308887 C187.014157,38.0971432 187.086851,37.9221926 187.086866,37.709777 L187.086866,30.9354185 C187.086851,30.5971432 187.065867,30.260738 187.018663,29.9224315 C187.907911,28.7187848 188.766463,28.1156367 189.600649,28.1156211 C190.96994,28.1078289 191.656495,29.0473354 191.656495,30.9354185 L191.656495,37.709777 C191.65648,37.9143224 191.722438,38.0892731 191.856242,38.2308887 C191.997871,38.3646185 192.174748,38.4305562 192.387246,38.4305562 L195.01795,38.4305562 C195.230402,38.4305562 195.405408,38.3646185 195.539227,38.2308887 C195.672983,38.0971432 195.738942,37.9221926 195.738957,37.709777 L195.738957,30.9354185 C195.738957,29.0001302 195.291481,27.5701666 194.394376,26.6497042 C193.505097,25.7214185 192.287911,25.2617406 190.7455,25.261725 C189.210916,25.2539328 187.712654,26.0080004 186.248938,27.5263276 C185.304582,26.0158705 183.917254,25.2617406 182.08365,25.261725 Z M224.35029,25.261725 C222.052388,25.2617406 220.292178,25.8236835 219.064532,26.9565302 C217.836886,28.081538 217.22304,29.75239 217.22304,31.9630237 C217.22304,34.1658029 217.836886,35.8317926 219.064532,36.9646549 C220.292178,38.0975016 222.052388,38.6643224 224.35029,38.6643224 C226.656064,38.6643224 228.423008,38.0975016 229.65067,36.9646549 C230.878316,35.8317926 231.492162,34.1658029 231.492178,31.9630237 C231.492162,29.75239 230.878316,28.081538 229.65067,26.9565302 C228.423008,25.8236835 226.656064,25.2617406 224.35029,25.261725 Z M232.354456,25.4954913 C232.181321,25.4955068 232.04454,25.5509562 231.9501,25.6610757 C231.72976,25.9128419 231.747002,26.2024315 231.998832,26.5328211 L235.832831,31.9484055 L231.726018,37.3883484 C231.600103,37.529964 231.536015,37.6599536 231.536015,37.7779588 C231.536015,37.8880939 231.553257,37.9866185 231.584732,38.0652887 C231.647682,38.3091692 231.815953,38.4305562 232.091386,38.4305562 L234.605169,38.4305562 C235.32917,38.4305562 235.94113,38.0806549 236.436918,37.3883484 L238.716861,34.3201666 L240.982197,37.3883484 C241.485827,38.0806549 242.099673,38.4305562 242.823674,38.4305562 L245.337457,38.4305562 C245.61289,38.4305562 245.781146,38.3091692 245.844111,38.0652887 C245.875586,38.0023588 245.892828,37.9105822 245.892843,37.7925614 C245.892828,37.6667016 245.82874,37.529964 245.70284,37.3883484 L241.596012,31.9484055 L245.430027,26.5328211 C245.681842,26.2024315 245.699083,25.9128419 245.478743,25.6610757 C245.384288,25.5509562 245.252386,25.4955068 245.079266,25.4954913 L242.516766,25.4954913 C241.753402,25.4955068 241.139572,25.8405458 240.675274,26.5328211 L238.716861,29.5084783 L236.753585,26.5328211 C236.289272,25.8405458 235.675425,25.4955068 234.912077,25.4954913 L232.354456,25.4954913 Z M118.766524,27.9402965 C120.51356,27.940312 121.425694,28.8645146 121.504404,30.7211328 L116.014037,30.7211328 C116.108461,28.8645146 117.027344,27.940312 118.766524,27.9402965 Z M134.122037,27.9402965 C135.869074,27.940312 136.781207,28.8645146 136.859917,30.7211328 L131.36955,30.7211328 C131.463975,28.8645146 132.382858,27.940312 134.122037,27.9402965 Z M165.430757,27.9402965 C166.485283,27.940312 167.256893,28.2576263 167.744809,28.8948419 C168.240582,29.5320887 168.490167,30.5480835 168.490167,31.9484055 C168.490167,33.3487588 168.240582,34.3715016 167.744809,35.0166029 C167.256893,35.6617042 166.485283,35.985751 165.430757,35.985751 C164.384103,35.985751 163.619243,35.6617042 163.131327,35.0166029 C162.643411,34.3715016 162.395712,33.3487588 162.395712,31.9484055 C162.395712,30.5480835 162.643411,29.5320887 163.131327,28.8948419 C163.619243,28.2576263 164.384103,27.940312 165.430757,27.9402965 Z M224.35029,27.9402965 C225.404816,27.940312 226.176427,28.2576263 226.664342,28.8948419 C227.160115,29.5320887 227.4097,30.5480835 227.4097,31.9484055 C227.4097,33.3487588 227.160115,34.3715016 226.664342,35.0166029 C226.176427,35.6617042 225.404816,35.985751 224.35029,35.985751 C223.303636,35.985751 222.538776,35.6617042 222.05086,35.0166029 C221.562945,34.3715016 221.315245,33.3487588 221.315245,31.9484055 C221.315245,30.5480835 221.562945,29.5320887 222.05086,28.8948419 C222.538776,28.2576263 223.303636,27.940312 224.35029,27.9402965 Z M149.906258,28.1156211 C150.598768,28.1156367 151.453579,28.273351 152.468758,28.5880315 L152.468758,34.7584783 C151.335537,35.466525 150.340203,35.8201666 149.482414,35.8201666 C148.632498,35.8201666 147.992805,35.5133406 147.567855,34.8997198 C147.142889,34.2860835 146.929658,33.3083016 146.929658,31.9630237 C146.929658,30.6177614 147.153381,29.6418497 147.601964,29.0360835 C148.050517,28.4224471 148.820257,28.1156367 149.906258,28.1156211 Z M202.812627,31.1838029 L209.56477,31.1838029 C210.170713,31.1838029 210.6354,31.3625094 210.958069,31.7243952 C211.280706,32.0862809 211.440356,32.5852939 211.440372,33.2146393 C211.440356,33.8440159 211.280706,34.338151 210.958069,34.7000367 C210.6354,35.0619224 210.170713,35.2406289 209.56477,35.2406133 L202.812627,35.2406133 L202.812627,31.1838029 Z" id="path4916-7"></path>
                    <path d="M6.25518916,0.117324156 C4.33858414,0.170996883 2.6433308,0.757594286 1.54915304,2.01179688 C-1.87121506,5.93306961 1.89381962,9.57972935 3.20065019,14.5377709 C4.94560395,21.1536358 2.96114316,28.1935216 8.25744677,32.8251164 C10.0815929,34.4199164 12.2842828,34.8400722 14.4006264,35.0361553 C11.6182355,38.3134956 9.94061837,42.858254 10.8540485,47.5280306 C12.4528411,55.7016514 20.534758,61.1432462 28.5479648,59.7764151 C33.1188927,58.9964774 36.7967922,56.1967216 38.7979648,52.3738177 C38.8708186,52.2476774 39.0414409,52.2471008 39.1146236,52.3738177 C41.1159973,56.1958332 44.7943801,58.9965865 49.3646236,59.7764151 C57.3778319,61.1432462 65.4256362,55.7016514 67.0244382,47.5280306 C67.937859,42.858254 66.2943607,38.3134956 63.511962,35.0361553 C65.628304,34.8400722 67.7968844,34.4199164 69.6210399,32.8251164 C74.917342,28.1935216 72.9328827,21.1536358 74.6778365,14.5377709 C75.9846671,9.57972935 79.7448285,5.93306961 76.324462,2.01179688 C75.2302936,0.757594286 73.5740043,0.171012468 71.6573992,0.117324156 C67.4404432,-0.00160051948 63.047605,1.6897761 58.5964439,3.79914234 C54.1452828,5.90850857 49.2342358,9.53037351 46.1444477,13.4079008 L57.5490342,20.0312774 L39.5092291,30.5020566 L37.930807,50.3673242 L37.5215865,29.5864722 L35.3877937,28.3494592 L33.819115,48.0345242 L33.4098945,27.2001086 L31.27123,25.9582332 L29.707423,45.7066177 L29.2884591,24.8088826 L27.1644097,23.5767475 L25.5908593,43.3738177 L25.1767671,22.4176566 L23.0575894,21.1903839 L21.4791673,41.0458956 L21.0650751,20.031293 L31.987366,13.6903839 C28.8607824,9.68260208 23.7606474,5.90821247 19.3161445,3.79914234 C14.8716416,1.69007221 10.5530976,0.0232254545 6.25518916,0.117324156 Z" id="path13218" fill-opacity="0.7"></path>
                </g>
            </g>
        </g>
    </g>
</svg>

<svg viewBox="0 0 246 60"><g fill="#2A3744"><path d="M91.758 21.507c-1.602-.007-3.69.073-5.495 1.807-.721.692-.99 1.899-.99 2.931v11.05c0 .323.112.594.332.814.22.213.487.322.794.322h2.217c.307 0 .567-.11.78-.322.22-.22.33-.49.33-.813v-4.958h7.58c.308 0 .563-.104.775-.317.22-.22.332-.482.332-.788v-1.125c0-.3-.111-.555-.332-.775a1.032 1.032 0 00-.774-.331h-7.58v-2.255c-.054-1.819 1.22-1.9 1.977-1.9h7.513c.306 0 .567-.103.779-.316.22-.22.331-.487.331-.794v-1.11c0-.307-.11-.569-.331-.789a1.043 1.043 0 00-.78-.331h-7.458zm61.427 0a.702.702 0 00-.516.214.695.695 0 00-.2.516v3.624c-1.275-.401-2.416-.6-3.415-.6-1.936 0-3.48.578-4.628 1.734-1.141 1.15-1.71 2.805-1.71 4.968 0 2.156.55 3.811 1.651 4.968 1.11 1.156 2.487 1.733 4.131 1.733 1.645 0 3.093-.438 4.336-1.32v.366c0 .204.066.38.2.52a.69.69 0 00.516.2h2.27a.695.695 0 00.517-.2.712.712 0 00.214-.52V22.237a.677.677 0 00-.214-.516.677.677 0 00-.517-.214h-2.635zm46.3 0c-.307 0-.573.11-.794.331-.22.22-.331.482-.331.789V37.32c0 .307.11.569.331.79.22.212.487.32.794.32h10.148c1.755 0 3.234-.443 4.438-1.324 1.212-.89 1.822-2.184 1.822-3.891 0-1.707-.76-2.97-2.27-3.78 1.062-.865 1.593-1.872 1.593-3.029 0-1.164-.309-2.12-.93-2.868-1.118-1.353-2.855-2.031-5.208-2.031h-9.593zm3.328 3.2h6.313c.496 0 .895.149 1.194.448.299.299.448.716.448 1.251 0 .527-.15.938-.448 1.237-.3.291-.698.439-1.194.439h-6.313v-3.375zm-92.23.555c-1.205 0-2.181.14-2.929.423-.74.276-1.511.704-2.314 1.286v-.745a.695.695 0 00-.2-.516.688.688 0 00-.52-.215h-2.646a.702.702 0 00-.517.215.695.695 0 00-.2.516V37.71c0 .212.067.387.2.52.134.135.304.2.517.2h2.645a.685.685 0 00.507-.2.687.687 0 00.214-.52v-7.54c.968-1.163 1.983-1.748 3.045-1.748l1.817.069h.38a.707.707 0 00.521-.2.673.673 0 00.21-.516v-1.797a.664.664 0 00-.21-.507.684.684 0 00-.52-.21zm8.193 0c-2.164 0-3.856.579-5.076 1.743-1.22 1.157-1.827 2.819-1.827 4.982 0 2.156.605 3.805 1.817 4.953 1.212 1.149 2.905 1.724 5.077 1.724 4.304.008 6.454-1.117 6.454-3.375a.673.673 0 00-.209-.516.688.688 0 00-.521-.214h-1.759c-.567.008-1.042.249-1.427.72-.386.473-1.102.707-2.149.707-1.046 0-1.81-.222-2.29-.663-.472-.44-.749-1.14-.828-2.108h8.891a.695.695 0 00.517-.2.733.733 0 00.214-.536v-.672c0-2.108-.605-3.725-1.817-4.85-1.212-1.133-2.903-1.695-5.067-1.695zm15.356 0c-2.164 0-3.857.579-5.077 1.743-1.22 1.157-1.826 2.819-1.826 4.982 0 2.156.605 3.805 1.817 4.953 1.212 1.149 2.904 1.724 5.076 1.724 4.305.008 6.455-1.117 6.455-3.375a.677.677 0 00-.214-.516.677.677 0 00-.517-.214h-1.758c-.567.008-1.042.249-1.428.72-.385.473-1.102.707-2.148.707-1.047 0-1.815-.222-2.295-.663-.472-.44-.744-1.14-.823-2.108h8.886a.707.707 0 00.735-.736v-.672c0-2.108-.605-3.725-1.817-4.85-1.212-1.133-2.902-1.695-5.066-1.695zm31.299 0c-2.298 0-4.058.562-5.286 1.695-1.228 1.125-1.841 2.795-1.841 5.006 0 2.203.613 3.869 1.841 5.002 1.228 1.133 2.988 1.7 5.286 1.7 2.306 0 4.072-.567 5.3-1.7 1.228-1.133 1.842-2.8 1.842-5.002 0-2.21-.614-3.881-1.842-5.006-1.228-1.133-2.994-1.695-5.3-1.695zm16.653 0c-.772 0-1.432.149-1.983.448-.543.29-1.1.71-1.666 1.261v-.745a.695.695 0 00-.2-.516.688.688 0 00-.521-.215h-2.646a.702.702 0 00-.516.215.689.689 0 00-.2.516l.084 11.484c.002.212-.018.387.116.52a.69.69 0 00.516.2h2.646a.685.685 0 00.506-.2.687.687 0 00.215-.52V29.8c.802-1.124 1.64-1.684 2.514-1.684 1.369-.008 2.055.931 2.055 2.82v6.774c0 .204.066.38.2.52.142.135.319.2.531.2h2.63a.685.685 0 00.508-.2.688.688 0 00.214-.52v-6.775c0-.338-.021-.674-.068-1.013.889-1.203 1.747-1.806 2.582-1.806 1.369-.008 2.055.931 2.055 2.82v6.774c0 .204.066.38.2.52.142.135.319.2.531.2h2.631a.707.707 0 00.521-.2.706.706 0 00.2-.52v-6.775c0-1.935-.448-3.365-1.345-4.285-.889-.929-2.106-1.388-3.649-1.388-1.534-.008-3.032.746-4.496 2.264-.944-1.51-2.332-2.264-4.165-2.264zm42.266 0c-2.298 0-4.058.562-5.285 1.695-1.228 1.125-1.842 2.795-1.842 5.006 0 2.203.614 3.869 1.842 5.002 1.227 1.133 2.987 1.7 5.285 1.7 2.306 0 4.073-.567 5.3-1.7 1.228-1.133 1.842-2.8 1.842-5.002 0-2.21-.614-3.881-1.841-5.006-1.228-1.133-2.995-1.695-5.3-1.695zm8.004.233a.507.507 0 00-.404.166c-.22.252-.203.541.049.872l3.834 5.415-4.107 5.44c-.126.142-.19.272-.19.39 0 .11.017.209.049.287.063.244.231.366.506.366h2.514c.724 0 1.336-.35 1.832-1.043l2.28-3.068 2.265 3.068c.504.693 1.118 1.043 1.842 1.043h2.513c.276 0 .444-.122.507-.366a.626.626 0 00.049-.272c0-.126-.064-.263-.19-.405l-4.107-5.44 3.834-5.415c.252-.33.27-.62.049-.872a.496.496 0 00-.4-.166h-2.562c-.764 0-1.377.346-1.842 1.038l-1.958 2.975-1.963-2.975c-.465-.692-1.079-1.037-1.842-1.038h-2.558zM118.767 27.94c1.747 0 2.659.925 2.737 2.781h-5.49c.094-1.856 1.013-2.78 2.753-2.78zm15.355 0c1.747 0 2.66.925 2.738 2.781h-5.49c.094-1.856 1.013-2.78 2.752-2.78zm31.309 0c1.054 0 1.826.318 2.314.955.496.637.745 1.653.745 3.053s-.25 2.424-.745 3.069c-.488.645-1.26.969-2.314.969-1.047 0-1.812-.324-2.3-.97-.488-.644-.735-1.667-.735-3.068 0-1.4.247-2.416.735-3.053s1.253-.955 2.3-.955zm58.92 0c1.054 0 1.825.318 2.313.955.496.637.746 1.653.746 3.053s-.25 2.424-.746 3.069c-.488.645-1.26.969-2.314.969-1.046 0-1.811-.324-2.3-.97-.487-.644-.735-1.667-.735-3.068 0-1.4.248-2.416.736-3.053s1.253-.955 2.3-.955zm-74.445.176c.693 0 1.548.157 2.563.472v6.17c-1.133.709-2.129 1.062-2.987 1.062-.85 0-1.49-.307-1.914-.92-.425-.614-.638-1.592-.638-2.937 0-1.345.223-2.321.672-2.927.449-.614 1.218-.92 2.304-.92zm52.907 3.068h6.752c.606 0 1.07.179 1.393.54.323.362.482.861.482 1.49 0 .63-.16 1.124-.482 1.486-.323.362-.787.54-1.393.54h-6.752v-4.056z"/><path fill-opacity=".7" d="M6.255.117C4.34.171 2.643.757 1.55 2.012c-3.42 3.921.345 7.568 1.652 12.526 1.745 6.616-.24 13.656 5.056 18.287 1.825 1.595 4.027 2.015 6.144 2.211-2.783 3.277-4.46 7.822-3.547 12.492 1.599 8.174 9.68 13.615 17.694 12.248 4.57-.78 8.249-3.58 10.25-7.402a.18.18 0 01.317 0c2.001 3.822 5.68 6.623 10.25 7.402 8.013 1.367 16.06-4.074 17.66-12.248.913-4.67-.73-9.215-3.513-12.492 2.116-.196 4.285-.616 6.109-2.21 5.296-4.632 3.312-11.672 5.057-18.288 1.307-4.958 5.067-8.605 1.646-12.526C75.23.758 73.574.17 71.657.117 67.44-.002 63.047 1.69 58.597 3.8c-4.452 2.11-9.363 5.731-12.453 9.609L57.55 20.03 39.51 30.501l-1.578 19.865-.41-20.78-2.133-1.238-1.569 19.686-.41-20.835-2.138-1.242-1.564 19.749-.419-20.898-2.124-1.232-1.573 19.797-.414-20.956-2.12-1.228-1.578 19.856-.414-21.015 10.922-6.34c-3.126-4.008-8.226-7.783-12.67-9.892C14.871 1.69 10.552.023 6.254.117z"/></g></svg>
